blockchains/ethereum/assets/0xD9Ec3ff1f8be459Bb9369b4E79e9Ebcf7141C093/logo.svg

<svg fill="none" height="250" viewBox="0 0 250 250" width="250" xmlns="http://www.w3.org/2000/svg"><path d="m.900391 65.6696 42.971409 105.1524 71.5012 77.364-70.8229-239.97311z" fill="#9c2131"/><path d="m.900391 65.6696 74.945409 48.8214-31.2957-106.27811z" fill="#576b98"/><path d="m71.0317 1.82812 24.7469 84.11868 15.4714 6.0137 18.225-63.0855z" fill="#d71b2a"/><path d="m249.102 81.0602-34.375 52.1988-78.729-31.166 22.346-75.1123 60.843-16.9006z" fill="#c41a24"/><path d="m198.564 158.055-56.03 84.119-36.096-120.557z" fill="#c71c26"/><path d="m102.654 37.1265 8.596 54.8203 18.225-63.0855z" fill="#a71927"/><path d="m95.4396 85.9468 15.8104 6.0137-8.596-54.8205-31.6223-35.31188z" fill="#61395f"/><path d="m75.8327 114.491-31.974 56.331-42.958309-105.1521z" fill="#614268"/><path d="m158.344 26.9961 28.531 48.0658-50.877 27.0321z" fill="#da1728"/><path d="m219.201 10.0938-32.313 64.9666-28.53-48.066z" fill="#e42735"/><path d="m214.727 133.259-27.852-58.2121 62.225 6.0134z" fill="#a61d1e"/><path d="m144.595 168.187-2.061 73.972-36.096-120.542z" fill="#d71b2a"/><path d="m142.534 242.174 2.061-73.973 53.969-10.146z" fill="#a51c1c"/><path d="m115.711 248.172-71.8533-77.363 51.5681 10.516z" fill="#721919"/></svg>

<svg width="250" height="250" viewBox="0 0 250 250" fill="none" xmlns="http://www.w3.org/2000/svg">
<path d="M0.900391 65.6696L43.8718 170.822L115.373 248.186L44.5501 8.21289L0.900391 65.6696Z" fill="#9C2131"/>
<path d="M0.900391 65.6696L75.8458 114.491L44.5501 8.21289L0.900391 65.6696Z" fill="#576B98"/>
<path d="M71.0317 1.82812L95.7786 85.9468L111.25 91.9605L129.475 28.875L71.0317 1.82812Z" fill="#D71B2A"/>
<path d="M249.102 81.0602L214.727 133.259L135.998 102.093L158.344 26.9807L219.187 10.0801L249.102 81.0602Z" fill="#C41A24"/>
<path d="M198.564 158.055L142.534 242.174L106.438 121.617L198.564 158.055Z" fill="#C71C26"/>
<path d="M102.654 37.1265L111.25 91.9468L129.475 28.8613L102.654 37.1265Z" fill="#A71927"/>
<path d="M95.4396 85.9468L111.25 91.9605L102.654 37.14L71.0317 1.82812L95.4396 85.9468Z" fill="#61395F"/>
<path d="M75.8327 114.491L43.8587 170.822L0.900391 65.6699L75.8327 114.491Z" fill="#614268"/>
<path d="M158.344 26.9961L186.875 75.0619L135.998 102.094L158.344 26.9961Z" fill="#DA1728"/>
<path d="M219.201 10.0938L186.888 75.0604L158.358 26.9944L219.201 10.0938Z" fill="#E42735"/>
<path d="M214.727 133.259L186.875 75.0469L249.1 81.0603L214.727 133.259Z" fill="#A61D1E"/>
<path d="M144.595 168.187L142.534 242.159L106.438 121.617L144.595 168.187Z" fill="#D71B2A"/>
<path d="M142.534 242.174L144.595 168.201L198.564 158.055L142.534 242.174Z" fill="#A51C1C"/>
<path d="M115.711 248.172L43.8577 170.809L95.4258 181.325L115.711 248.172Z" fill="#721919"/>
</svg>
